src/assets/social/SocialDiscourseColour.svg

<svg viewBox="0 0 24 24" fill="none" xmlns="http://www.w3.org/2000/svg">
<path d="M12.1027 -1.52588e-05C5.53218 -1.52588e-05 0 5.27809 0 11.7908C0 12.0011 0 24 0 24L12.1003 23.9884C18.6708 23.9884 24 18.5069 24 11.9965C24 5.48616 18.6661 -1.52588e-05 12.1027 -1.52588e-05Z" fill="#231F20"/>
<path d="M12.2194 4.56363C10.9419 4.56438 9.68649 4.89378 8.57607 5.51961C7.46564 6.14543 6.53824 7.04622 5.88465 8.1338C5.23106 9.22138 4.87368 10.4585 4.84749 11.724C4.82129 12.9895 5.12718 14.2401 5.73522 15.3533L4.40059 19.6073L9.19313 18.5345C10.196 18.9822 11.2872 19.202 12.3868 19.1778C13.4865 19.1535 14.5668 18.8859 15.5485 18.3944C16.5303 17.903 17.3887 17.2002 18.0609 16.3375C18.733 15.4748 19.2019 14.4741 19.4333 13.4086C19.6646 12.3431 19.6525 11.2398 19.3978 10.1795C19.1431 9.11929 18.6524 8.1289 17.9614 7.28091C17.2705 6.43291 16.3968 5.74878 15.4045 5.27862C14.4122 4.80845 13.3263 4.56416 12.2264 4.56363H12.2194Z" fill="#FFF9AE"/>
<path d="M18.0712 7.42603C19.0654 8.71757 19.5968 10.3006 19.5815 11.9248C19.5662 13.5491 19.005 15.1219 17.9866 16.3948C16.9683 17.6677 15.5508 18.5681 13.9583 18.9535C12.3658 19.339 10.6891 19.1876 9.19313 18.5232L4.40059 19.6098L9.27946 19.0388C10.8418 19.9456 12.6862 20.2511 14.4613 19.8971C16.2363 19.543 17.8178 18.5542 18.9043 17.119C19.9908 15.6839 20.5064 13.9028 20.3528 12.1152C20.1991 10.3276 19.387 8.65847 18.0712 7.42603Z" fill="#00AEEF"/>
<path d="M16.7132 6.07818C17.838 7.25981 18.5333 8.77915 18.6892 10.3961C18.845 12.013 18.4527 13.6353 17.574 15.0065C16.6954 16.3778 15.3806 17.4198 13.8375 17.9679C12.2944 18.516 10.6109 18.539 9.05313 18.0331L4.40059 19.6098L9.19313 18.5348C10.8419 19.2728 12.707 19.3843 14.4335 18.8482C16.1599 18.312 17.6271 17.1656 18.5558 15.6272C19.4846 14.0888 19.8101 12.2657 19.4703 10.5049C19.1306 8.74414 18.1493 7.16861 16.7132 6.07818Z" fill="#00A94F"/>
<path d="M6.17621 15.5152C5.5281 13.9673 5.43662 12.2456 5.91709 10.6388C6.39757 9.032 7.42081 7.63762 8.81534 6.68934C10.2099 5.74107 11.891 5.29651 13.5769 5.43017C15.2629 5.56383 16.8513 6.26759 18.0759 7.42351C16.9489 5.95809 15.3049 4.96852 13.473 4.6529C11.6411 4.33727 9.75647 4.71889 8.19641 5.72135C6.63635 6.72382 5.516 8.27314 5.05963 10.0592C4.60326 11.8452 4.84456 13.7361 5.73522 15.3534L4.40059 19.6073L6.17621 15.5152Z" fill="#F15D22"/>
<path d="M5.73508 15.3534C4.93084 13.8814 4.66091 12.1806 4.97042 10.5351C5.27992 8.88967 6.15011 7.39935 7.43549 6.31332C8.72088 5.22728 10.3436 4.61137 12.0323 4.56853C13.721 4.52569 15.3733 5.05853 16.7131 6.07797C15.4359 4.74545 13.699 3.93862 11.8483 3.81823C9.99763 3.69784 8.16912 4.27272 6.72708 5.42834C5.28503 6.58396 4.33532 8.23547 4.06715 10.0538C3.79899 11.8722 4.23207 13.7239 5.28009 15.2401L4.40278 19.6096L5.73508 15.3534Z" fill="#E31B23"/>
</svg>

<svg xmlns="http://www.w3.org/2000/svg" fill="none" viewBox="0 0 24 24"><path fill="#231F20" d="M12.103 0C5.533 0 0 5.278 0 11.79V24l12.1-.012c6.57 0 11.9-5.481 11.9-11.991S18.666 0 12.103 0"/><path fill="#FFF9AE" d="M12.22 4.564a7.43 7.43 0 0 0-3.644.956 7.346 7.346 0 0 0-2.691 2.614 7.26 7.26 0 0 0-.15 7.22l-1.334 4.253 4.792-1.072a7.435 7.435 0 0 0 6.356-.14 7.36 7.36 0 0 0 2.512-2.058 7.28 7.28 0 0 0 1.372-2.928 7.243 7.243 0 0 0-.035-3.23 7.281 7.281 0 0 0-1.437-2.898 7.365 7.365 0 0 0-2.556-2.002 7.432 7.432 0 0 0-3.179-.715z"/><path fill="#00AEEF" d="M18.071 7.426a7.262 7.262 0 0 1 1.51 4.499 7.263 7.263 0 0 1-1.594 4.47 7.38 7.38 0 0 1-4.029 2.558 7.435 7.435 0 0 1-4.765-.43L4.401 19.61l4.878-.571a7.432 7.432 0 0 0 5.182.858 7.381 7.381 0 0 0 4.443-2.778 7.258 7.258 0 0 0-.833-9.693"/><path fill="#00A94F" d="M16.713 6.078a7.253 7.253 0 0 1 .86 8.928 7.36 7.36 0 0 1-3.735 2.962 7.437 7.437 0 0 1-4.785.065L4.401 19.61l4.792-1.075a7.436 7.436 0 0 0 5.24.313 7.363 7.363 0 0 0 4.123-3.22 7.249 7.249 0 0 0 .914-5.123 7.296 7.296 0 0 0-2.757-4.427"/><path fill="#F15D22" d="M6.176 15.515a7.246 7.246 0 0 1-.259-4.876 7.312 7.312 0 0 1 2.898-3.95 7.427 7.427 0 0 1 9.26.735 7.387 7.387 0 0 0-4.602-2.771A7.431 7.431 0 0 0 8.196 5.72 7.311 7.311 0 0 0 5.06 10.06a7.249 7.249 0 0 0 .675 5.294l-1.334 4.254z"/><path fill="#E31B23" d="M5.735 15.353a7.25 7.25 0 0 1-.765-4.818 7.294 7.294 0 0 1 2.465-4.222 7.415 7.415 0 0 1 4.597-1.744 7.42 7.42 0 0 1 4.681 1.509 7.404 7.404 0 0 0-4.865-2.26 7.421 7.421 0 0 0-5.12 1.61 7.293 7.293 0 0 0-2.66 4.626A7.256 7.256 0 0 0 5.28 15.24l-.877 4.37z"/></svg>
